X: 12
T:Abraham Brown, Ferris
M:6/8
L:1/8
Q:1/4=100
S:Ferris
A:Bidford
P:A.(AB)4.AA
Z:VRH 05/03/0
K:G
P:A
GFE D2D|c2B A3 |Bcd D2D|E3 G3:|
P:B
G2A B2c|d2d d2G|G2A B2c|d3 B2B|
e2e d2B|c2B A2G|GAB D2D|E3 G3 ||

